src/assets/icons/food-drink,simple,leaf.svg

<svg width="48" height="48" viewBox="0 0 48 48" fill="none" xmlns="http://www.w3.org/2000/svg">
<rect opacity="0.2" x="5" y="5" width="38" height="38" rx="4" fill="black"/>
<path d="M16.7661 30.2023C4.17051 16.7669 26.3639 8.25203 36.5492 9.05186C37.3031 9.11107 37.9133 9.64784 38.0221 10.3962C39.3634 19.6193 31.0867 45.4779 16.7661 30.2023Z" fill="black"/>
<path d="M12.5311 38.6961C12.3633 39.5073 12.8848 40.301 13.6961 40.4689C14.5073 40.6367 15.301 40.1152 15.4689 39.3039L12.5311 38.6961ZM35.9319 13.1754C36.581 12.6608 36.6901 11.7173 36.1754 11.0681C35.6608 10.419 34.7173 10.3099 34.0681 10.8246L35.9319 13.1754ZM27.8894 26.6419C28.6461 26.9791 29.5329 26.6391 29.8701 25.8824C30.2073 25.1257 29.8673 24.2389 29.1106 23.9017L27.8894 26.6419ZM19.9603 18.3477C19.3239 17.8173 18.378 17.9033 17.8477 18.5397C17.3173 19.1761 17.4033 20.122 18.0397 20.6523L19.9603 18.3477ZM28.8321 11.7519C28.1428 11.2924 27.2115 11.4787 26.7519 12.1679C26.2924 12.8572 26.4787 13.7885 27.1679 14.2481L28.8321 11.7519ZM32.9429 18.3927C33.7121 18.7004 34.585 18.3263 34.8927 17.5571C35.2004 16.7879 34.8263 15.915 34.0571 15.6073L32.9429 18.3927ZM15.4689 39.3039C16.4264 34.6759 19.0439 30.1745 22.1778 26.2007L19.8222 24.343C16.5444 28.4992 13.6211 33.428 12.5311 38.6961L15.4689 39.3039ZM21.998 26.3916C22.3016 26.121 24.3096 25.0466 27.8894 26.6419L29.1106 23.9017C24.6904 21.9319 21.3651 22.9372 20.002 24.152L21.998 26.3916ZM22.4345 25.7103C22.8966 24.1984 22.9378 20.8289 19.9603 18.3477L18.0397 20.6523C19.8622 22.1711 19.7701 24.164 19.5655 24.8334L22.4345 25.7103ZM22.1778 26.2007C25.0762 22.5256 27.3522 20.3819 29.9822 18.1033L28.0178 15.8359C25.2945 18.1953 22.8725 20.4752 19.8222 24.343L22.1778 26.2007ZM29.9822 18.1033C31.4132 16.8635 32.9009 15.6312 34.0332 14.7071C34.5988 14.2455 35.0744 13.8618 35.4082 13.5938C35.5751 13.4599 35.7065 13.3549 35.796 13.2836C35.8407 13.2479 35.8749 13.2207 35.8979 13.2024C35.9093 13.1933 35.9179 13.1865 35.9236 13.182C35.9265 13.1797 35.9286 13.178 35.93 13.1769C35.9307 13.1764 35.9312 13.176 35.9315 13.1757C35.9316 13.1756 35.9318 13.1755 35.9318 13.1755C35.9318 13.1754 35.9319 13.1754 35.9319 13.1754C35.9319 13.1754 35.9319 13.1754 35 12C34.0681 10.8246 34.0681 10.8246 34.0681 10.8246C34.068 10.8247 34.068 10.8247 34.0679 10.8248C34.0678 10.8249 34.0676 10.825 34.0674 10.8252C34.0669 10.8255 34.0663 10.826 34.0655 10.8267C34.0639 10.828 34.0615 10.8299 34.0584 10.8323C34.0521 10.8373 34.0429 10.8446 34.0309 10.8541C34.0069 10.8732 33.9716 10.9013 33.9257 10.9379C33.8339 11.0111 33.6999 11.1182 33.5303 11.2543C33.1912 11.5265 32.7092 11.9153 32.1363 12.3829C30.9918 13.317 29.4795 14.5695 28.0178 15.8359L29.9822 18.1033ZM30.4792 17.2187C30.5835 16.5989 30.6452 15.6404 30.4943 14.6807C30.3516 13.7731 29.9599 12.5038 28.8321 11.7519L27.1679 14.2481C27.2401 14.2962 27.4317 14.5168 27.5307 15.1465C27.6215 15.7241 27.5831 16.3505 27.5208 16.7205L30.4792 17.2187ZM29.6544 18.3193C30.0025 18.1505 31.3939 17.7731 32.9429 18.3927L34.0571 15.6073C31.6061 14.6269 29.3308 15.1423 28.3456 15.6198L29.6544 18.3193Z" fill="black"/>
</svg>

<svg xmlns="http://www.w3.org/2000/svg" width="48" height="48" fill="none" viewBox="0 0 48 48">
  <rect width="38" height="38" x="5" y="5" fill="#000" opacity=".2" rx="4"/>
  <path fill="#000" d="M16.766 30.202C4.171 16.767 26.364 8.252 36.55 9.052c.754.06 1.364.596 1.473 1.344 1.341 9.223-6.935 35.082-21.256 19.806z"/>
  <path fill="#000" d="M12.531 38.696a1.5 1.5 0 002.938.608l-2.938-.608zm23.4-25.52a1.5 1.5 0 00-1.863-2.351l1.864 2.35zM27.89 26.641a1.5 1.5 0 101.222-2.74l-1.222 2.74zm-7.929-8.294a1.5 1.5 0 10-1.92 2.304l1.92-2.304zm8.872-6.596a1.5 1.5 0 00-1.664 2.496l1.664-2.496zm4.11 6.64a1.5 1.5 0 101.115-2.785l-1.114 2.786zM15.47 39.305c.957-4.628 3.575-9.13 6.709-13.103l-2.356-1.858c-3.278 4.156-6.2 9.085-7.29 14.353l2.937.608zm6.529-12.912c.304-.271 2.312-1.345 5.891.25l1.222-2.74c-4.42-1.97-7.746-.965-9.109.25l1.996 2.24zm.436-.682c.463-1.512.504-4.881-2.474-7.362l-1.92 2.304c1.822 1.52 1.73 3.512 1.526 4.181l2.869.877zm-.256.49c2.898-3.674 5.174-5.818 7.804-8.097l-1.964-2.267c-2.724 2.36-5.146 4.64-8.196 8.507l2.356 1.858zm7.804-8.097a185.51 185.51 0 014.051-3.396 223.134 223.134 0 011.763-1.423l.102-.082a5.9 5.9 0 01.026-.02l.006-.005.002-.001L35 12l-.932-1.175-.002.002a.408.408 0 01-.035.027 136.882 136.882 0 00-.5.4c-.34.273-.822.661-1.395 1.129a188.595 188.595 0 00-4.118 3.453l1.964 2.267zm.497-.884c.105-.62.166-1.579.015-2.538-.142-.908-.534-2.177-1.662-2.93l-1.664 2.497c.072.048.264.269.363.899.09.577.052 1.204-.01 1.574l2.958.498zm-.825 1.1c.349-.168 1.74-.546 3.289.074l1.114-2.786c-2.45-.98-4.726-.465-5.711.013l1.308 2.7z"/>
</svg>
